svg/Pictogram/pictograms-nps-misc-sea_plane.svg

<svg xmlns="http://www.w3.org/2000/svg" viewBox="0 0 256 256"><path d="m0 0c-.541 0-.981-.44-.981-.981v-7.526c0-.541.44-.981.981-.981h7.527c.541 0 .982.44.982.981v7.526c0 .541-.441.981-.982.981h-7.527" fill="#fff" transform="matrix(25.88211 0 0-25.88211 30.585 5.241)"/><path d="m0 0c.652 0 1.182.529 1.182 1.182v7.525c0 .654-.53 1.182-1.182 1.182h-7.527c-.653 0-1.182-.528-1.182-1.182v-7.525c0-.653.529-1.182 1.182-1.182h7.527" transform="matrix(25.88211 0 0-25.88211 225.41 256)"/><g fill="#fff"><path d="m0 0c-.172 0-.338.039-.484.104-.151.07-.321.111-.498.111-.178 0-.348-.041-.498-.111-.147-.065-.313-.104-.485-.104-.17 0-.336.039-.482.104-.153.07-.323.111-.498.111-.178 0-.348-.041-.498-.111-.149-.065-.313-.104-.485-.104-.172 0-.338.039-.484.104-.151.07-.32.111-.498.111-.178 0-.348-.041-.498-.111-.147-.065-.313-.104-.485-.104-.171 0-.336.039-.482.104-.152.07-.322.111-.498.111-.178 0-.348-.041-.498-.111-.149-.065-.313-.104-.484-.104v.725c.171 0 .335.039.484.103.15.07.32.111.498.111.176 0 .346-.041.498-.111.146-.064.311-.103.482-.103.172 0 .338.039.485.103.15.07.32.111.498.111.178 0 .347-.041.498-.111.146-.064.312-.103.484-.103.172 0 .336.039.485.103.15.07.32.111.498.111.175 0 .345-.041.498-.111.146-.064.312-.103.482-.103.172 0 .338.039.485.103.15.07.32.111.498.111.177 0 .347-.041.498-.111.146-.064.312-.103.484-.103v-.725" transform="matrix(25.88211 0 0-25.88211 229.65 215.89)"/><path d="m0 0c-.023-.039-.154-.264-.154-.264 0 0-.028-.056-.117-.056h-.448l-.256.759c.02.004.041.008.055.001.16.03.215.03.334-.031 0 0 .51-.264.545-.283.043-.022.07-.084.041-.135m-1.225.391l.241-.711h-1.782c-.039 0-.08.023-.08.084v.095c0 .053.022.084.069.108.054.025.377.154.572.205.351.088.721.168.98.219m-1.58-2.778l.289.78h2l.289-.776-2.58-.004zm4.828.008l-2.02-.002-.291.779c.232.038.67.108.922.18.109.027.22.141.252.205l.601.916v-1.146c0-.129.192-.129.192 0v1.183h.082c.23 0 .23.346 0 .346h-.082v1.145c0 .128-.192.128-.192 0v-1.145h-.056c-.205.02-1.168.123-1.354.219-.187.097-.383.209-.566.303-.168.084-.266.078-.448.046-.103-.019-.709-.132-1.296-.281-.725-.183-1.62-.605-1.62-.605l-1.023-.004c-.234.068-.326.506-.428.699l-.258.52c-.019.042-.066.056-.111.058l-.652.039c-.098.006-.061-.076-.047-.123l.447-1.754c.047-.195.318-.383.51-.402l2.633-.404h.033l-.289-.78-2.07-.002c-.051 0-.092-.027-.092-.076v-.133c0-.054.033-.091.092-.109.169-.051.681-.191 1.291-.34.021.008.043.012.064.022.193.089.396.134.605.134.209 0 .415-.045.604-.132.119-.055.25-.082.379-.082.129 0 .256.027.375.08.189.087.4.134.607.134.205 0 .416-.047.602-.132.121-.055.252-.082.379-.082.129 0 .26.027.375.08.191.087.4.134.607.134.196 0 .393-.043.572-.121.504.166.682.303.682.303.039.031.065.064.065.115v.137c0 .051-.028.078-.079.078" transform="matrix(25.88211 0 0-25.88211 183.95 101.44)"/></g></svg>

<?xml version="1.0" encoding="UTF-8" standalone="no"?>
<!-- Created with Inkscape (http://www.inkscape.org/) -->
<svg
   xmlns:dc="http://purl.org/dc/elements/1.1/"
   xmlns:cc="http://creativecommons.org/ns#"
   xmlns:rdf="http://www.w3.org/1999/02/22-rdf-syntax-ns#"
   xmlns:svg="http://www.w3.org/2000/svg"
   xmlns="http://www.w3.org/2000/svg"
   xmlns:sodipodi="http://sodipodi.sourceforge.net/DTD/sodipodi-0.dtd"
   xmlns:inkscape="http://www.inkscape.org/namespaces/inkscape"
   width="256"
   height="256"
   id="svg5294"
   sodipodi:version="0.32"
   inkscape:version="0.46"
   version="1.0"
   sodipodi:docname="pictograms-nps-misc-sea_plane-2.svg"
   inkscape:output_extension="org.inkscape.output.svg.inkscape">
  <defs
     id="defs5296">
    <inkscape:perspective
       sodipodi:type="inkscape:persp3d"
       inkscape:vp_x="0 : 526.18109 : 1"
       inkscape:vp_y="0 : 1000 : 0"
       inkscape:vp_z="744.09448 : 526.18109 : 1"
       inkscape:persp3d-origin="372.04724 : 350.78739 : 1"
       id="perspective5302" />
  </defs>
  <sodipodi:namedview
     id="base"
     pagecolor="#ffffff"
     bordercolor="#666666"
     borderopacity="1.0"
     gridtolerance="10000"
     guidetolerance="10"
     objecttolerance="10"
     inkscape:pageopacity="0.0"
     inkscape:pageshadow="2"
     inkscape:zoom="0.98994949"
     inkscape:cx="112.80911"
     inkscape:cy="62.857143"
     inkscape:document-units="px"
     inkscape:current-layer="layer1"
     showgrid="false"
     inkscape:window-width="725"
     inkscape:window-height="674"
     inkscape:window-x="1"
     inkscape:window-y="309" />
  <metadata
     id="metadata5299">
    <rdf:RDF>
      <cc:Work
         rdf:about="">
        <dc:format>image/svg+xml</dc:format>
        <dc:type
           rdf:resource="http://purl.org/dc/dcmitype/StillImage" />
      </cc:Work>
    </rdf:RDF>
  </metadata>
  <g
     inkscape:label="Layer 1"
     inkscape:groupmode="layer"
     id="layer1">
    <g
       id="g6196"
       transform="matrix(25.882115,0,0,-25.882115,30.584957,5.2414389)">
      <path
         d="M 0,0 C -0.541,0 -0.981,-0.44 -0.981,-0.981 L -0.981,-8.507 C -0.981,-9.048 -0.541,-9.488 0,-9.488 L 7.527,-9.488 C 8.068,-9.488 8.509,-9.048 8.509,-8.507 L 8.509,-0.981 C 8.509,-0.44 8.068,0 7.527,0 L 0,0 z"
         style="fill:#ffffff;fill-opacity:1;fill-rule:nonzero;stroke:none"
         id="path6198" />
    </g>
    <g
       id="g6200"
       transform="matrix(25.882115,0,0,-25.882115,225.40734,256)">
      <path
         d="M 0,0 C 0.652,0 1.182,0.529 1.182,1.182 L 1.182,8.707 C 1.182,9.361 0.652,9.889 0,9.889 L -7.527,9.889 C -8.18,9.889 -8.709,9.361 -8.709,8.707 L -8.709,1.182 C -8.709,0.529 -8.18,0 -7.527,0 L 0,0 z"
         style="fill:#000000;fill-opacity:1;fill-rule:nonzero;stroke:none"
         id="path6202" />
    </g>
    <g
       id="g6204"
       transform="matrix(25.882115,0,0,-25.882115,229.65443,215.88769)">
      <path
         d="M 0,0 C -0.172,0 -0.338,0.039 -0.484,0.104 C -0.635,0.174 -0.805,0.215 -0.982,0.215 C -1.16,0.215 -1.33,0.174 -1.48,0.104 C -1.627,0.039 -1.793,0 -1.965,0 C -2.135,0 -2.301,0.039 -2.447,0.104 C -2.6,0.174 -2.77,0.215 -2.945,0.215 C -3.123,0.215 -3.293,0.174 -3.443,0.104 C -3.592,0.039 -3.756,0 -3.928,0 C -4.1,0 -4.266,0.039 -4.412,0.104 C -4.563,0.174 -4.732,0.215 -4.91,0.215 C -5.088,0.215 -5.258,0.174 -5.408,0.104 C -5.555,0.039 -5.721,0 -5.893,0 C -6.064,0 -6.229,0.039 -6.375,0.104 C -6.527,0.174 -6.697,0.215 -6.873,0.215 C -7.051,0.215 -7.221,0.174 -7.371,0.104 C -7.52,0.039 -7.684,0 -7.855,0 L -7.855,0.725 C -7.684,0.725 -7.52,0.764 -7.371,0.828 C -7.221,0.898 -7.051,0.939 -6.873,0.939 C -6.697,0.939 -6.527,0.898 -6.375,0.828 C -6.229,0.764 -6.064,0.725 -5.893,0.725 C -5.721,0.725 -5.555,0.764 -5.408,0.828 C -5.258,0.898 -5.088,0.939 -4.91,0.939 C -4.732,0.939 -4.563,0.898 -4.412,0.828 C -4.266,0.764 -4.1,0.725 -3.928,0.725 C -3.756,0.725 -3.592,0.764 -3.443,0.828 C -3.293,0.898 -3.123,0.939 -2.945,0.939 C -2.77,0.939 -2.6,0.898 -2.447,0.828 C -2.301,0.764 -2.135,0.725 -1.965,0.725 C -1.793,0.725 -1.627,0.764 -1.48,0.828 C -1.33,0.898 -1.16,0.939 -0.982,0.939 C -0.805,0.939 -0.635,0.898 -0.484,0.828 C -0.338,0.764 -0.172,0.725 0,0.725 L 0,0 z"
         style="fill:#ffffff;fill-opacity:1;fill-rule:nonzero;stroke:none"
         id="path6206" />
    </g>
    <g
       id="g6208"
       transform="matrix(25.882115,0,0,-25.882115,183.95434,101.43988)">
      <path
         d="M 0,0 C -0.023,-0.039 -0.154,-0.264 -0.154,-0.264 C -0.154,-0.264 -0.182,-0.32 -0.271,-0.32 L -0.719,-0.32 L -0.975,0.439 C -0.955,0.443 -0.934,0.447 -0.92,0.449 C -0.76,0.479 -0.705,0.479 -0.586,0.418 C -0.586,0.418 -0.076,0.154 -0.041,0.135 C 0.002,0.113 0.029,0.051 0,0 M -1.225,0.391 L -0.984,-0.32 L -2.766,-0.32 C -2.805,-0.32 -2.846,-0.297 -2.846,-0.236 L -2.846,-0.141 C -2.846,-0.088 -2.824,-0.057 -2.777,-0.033 C -2.723,-0.008 -2.4,0.121 -2.205,0.172 C -1.854,0.26 -1.484,0.34 -1.225,0.391 M -2.805,-2.387 L -2.516,-1.607 L -0.514,-1.607 L -0.225,-2.383 L -2.805,-2.387 z M 2.023,-2.379 L 0.006,-2.381 L -0.285,-1.602 C -0.053,-1.564 0.385,-1.494 0.637,-1.422 C 0.746,-1.395 0.857,-1.281 0.889,-1.217 L 1.49,-0.301 L 1.49,-1.447 C 1.49,-1.576 1.682,-1.576 1.682,-1.447 L 1.682,-0.264 L 1.764,-0.264 C 1.994,-0.264 1.994,0.082 1.764,0.082 L 1.682,0.082 L 1.682,1.227 C 1.682,1.355 1.49,1.355 1.49,1.227 L 1.49,0.082 L 1.434,0.082 C 1.229,0.102 0.266,0.205 0.08,0.301 C -0.107,0.398 -0.303,0.51 -0.486,0.604 C -0.654,0.688 -0.752,0.682 -0.934,0.65 C -1.037,0.631 -1.643,0.518 -2.23,0.369 C -2.955,0.186 -3.85,-0.236 -3.85,-0.236 L -4.873,-0.24 C -5.107,-0.172 -5.199,0.266 -5.301,0.459 L -5.559,0.979 C -5.578,1.021 -5.625,1.035 -5.67,1.037 L -6.322,1.076 C -6.42,1.082 -6.383,1 -6.369,0.953 L -5.922,-0.801 C -5.875,-0.996 -5.604,-1.184 -5.412,-1.203 L -2.779,-1.607 L -2.746,-1.607 L -3.035,-2.387 L -5.105,-2.389 C -5.156,-2.389 -5.197,-2.416 -5.197,-2.465 L -5.197,-2.598 C -5.197,-2.652 -5.164,-2.689 -5.105,-2.707 C -4.936,-2.758 -4.424,-2.898 -3.814,-3.047 C -3.793,-3.039 -3.771,-3.035 -3.75,-3.025 C -3.557,-2.936 -3.354,-2.891 -3.145,-2.891 C -2.936,-2.891 -2.73,-2.936 -2.541,-3.023 C -2.422,-3.078 -2.291,-3.105 -2.162,-3.105 C -2.033,-3.105 -1.906,-3.078 -1.787,-3.025 C -1.598,-2.938 -1.387,-2.891 -1.18,-2.891 C -0.975,-2.891 -0.764,-2.938 -0.578,-3.023 C -0.457,-3.078 -0.326,-3.105 -0.199,-3.105 C -0.07,-3.105 0.061,-3.078 0.176,-3.025 C 0.367,-2.938 0.576,-2.891 0.783,-2.891 C 0.979,-2.891 1.176,-2.934 1.355,-3.012 C 1.859,-2.846 2.037,-2.709 2.037,-2.709 C 2.076,-2.678 2.102,-2.645 2.102,-2.594 L 2.102,-2.457 C 2.102,-2.406 2.074,-2.379 2.023,-2.379"
         style="fill:#ffffff;fill-opacity:1;fill-rule:nonzero;stroke:none"
         id="path6210" />
    </g>
  </g>
</svg>
